media/plusone.svg

<svg xmlns="http://www.w3.org/2000/svg" width="16" height="13" viewBox="0 0 16 13"><path fill="#78ADCC" d="M6 3H4v4H0v2h4v4h2V9h4V7H6V3zm5-1.92V2.9l2.778-.5V13H16V0l-5 1.08z"/></svg>

<svg xmlns="http://www.w3.org/2000/svg" width="16" height="13" viewBox="0 0 16 13"><path fill="#78ADCC" d="M6,3 L4,3 L4,7 L0,7 L0,9 L4,9 L4,13 L6,13 L6,9 L10,9 L10,7 L6,7 L6,3 Z M11,1.08 L11,2.9 L13.7777778,2.4 L13.7777778,13 L16,13 L16,0 L11,1.08 Z"/></svg>
